X:11
T:GB/7d/11 Bonny Light Horseman 
%%VWML:GB-7d-11-0
F:http://www.vwml.org/record/GB/7d/11
P:F.W. J(ekyll)
C:Transcribed by Simon Furey and Lewis Jones
L:1/4
M:3/4
I:linebreak $
K:D
D/>E/ | F F F/>E/ | E D D/F/ | A A A | (G F) D/>E/ | F F D/>E/ | F F F/>E/ | E D D/F/ | A A A |$ (G F) D/>F/ | A d c | B A (D/F/) | A d c | (B A) D/>F/ | A d c | B A F | E G B |$
B !fermata!A D/>E/ | F F F/>E/ | E D D/>F/ | A A A | G F D/>F/ | A d c | B A F/E/ | D B A | D2 |]

